src/img/icons/logview.svg

<svg xmlns="http://www.w3.org/2000/svg" width="384pt" height="384pt" version="1.1" viewBox="0 0 384 384"> <g> <path style="fill:rgb(100.000%,100.000%,100.000%);stroke-width:30.5;stroke:rgb(100.000%,100.000%,100.000%)" d="M 34.489105 70.569855 L 479.570251 70.569855 L 479.570251 449.177673 L 34.489105 449.177673 Z M 34.489105 70.569855" transform="matrix(0.748538,0,0,0.748538,0,0)"/> <path style="fill-rule:evenodd;fill:rgb(9.803%,9.803%,9.803%)" d="M 33.257812 62.523438 L 352.847656 62.523438 L 352.847656 325.085938 L 33.257812 325.085938 Z M 33.257812 62.523438"/> <path style="fill:rgb(9.803%,9.803%,9.803%)" d="M 41.882812 91.234375 L 344.363281 91.234375 L 344.363281 176.417969 L 41.882812 176.417969 Z M 41.882812 91.234375"/> <path style="fill:rgb(15.294%,16.470%,20.392%);fill-opacity:0.992157" d="M 41.929688 89.691406 L 41.929688 180.726562 L 343.023438 180.726562 L 343.023438 89.691406 Z M 41.988281 205.050781 L 41.988281 296.082031 L 343.082031 296.082031 L 343.082031 205.050781 Z M 41.988281 205.050781"/> <path style="fill-rule:evenodd;fill:rgb(20.000%,21.176%,26.274%);stroke-width:1.875;stroke:rgb(9.803%,9.803%,9.803%)" d="M 54.982178 119.827332 L 54.982178 241.439392 M 72.479828 119.827332 L 72.479828 241.439392 M 89.977478 119.827332 L 89.977478 241.439392 M 107.480347 119.827332 L 107.480347 241.439392 M 124.977997 119.827332 L 124.977997 241.439392 M 142.480865 119.827332 L 142.480865 241.439392 M 159.978516 119.827332 L 159.978516 241.439392 M 177.481384 119.827332 L 177.481384 241.439392 M 194.979034 119.827332 L 194.979034 241.439392 M 212.481903 119.827332 L 212.481903 241.439392 M 229.979553 119.827332 L 229.979553 241.439392 M 247.482422 119.827332 L 247.482422 241.439392 M 264.980072 119.827332 L 264.980072 241.439392 M 282.477722 119.827332 L 282.477722 241.439392 M 299.980591 119.827332 L 299.980591 241.439392 M 317.478241 119.827332 L 317.478241 241.439392 M 334.98111 119.827332 L 334.98111 241.439392 M 352.47876 119.827332 L 352.47876 241.439392 M 369.981628 119.827332 L 369.981628 241.439392 M 387.479279 119.827332 L 387.479279 241.439392 M 404.982147 119.827332 L 404.982147 241.439392 M 422.479797 119.827332 L 422.479797 241.439392 M 439.982666 119.827332 L 439.982666 241.439392 M 457.480316 119.827332 L 457.480316 241.439392 M 54.982178 119.827332 L 459.077179 119.827332 M 54.982178 137.126678 L 459.077179 137.126678 M 54.982178 154.426025 L 459.077179 154.426025 M 54.982178 171.725372 L 459.077179 171.725372 M 54.982178 189.024719 L 459.077179 189.024719 M 54.982178 206.324066 L 459.077179 206.324066 M 54.982178 223.623413 L 459.077179 223.623413 M 54.982178 240.92276 L 459.077179 240.92276" transform="matrix(0.748538,0,0,0.748538,0,0)"/> <path style="fill-rule:evenodd;fill:rgb(45.098%,46.274%,50.196%);fill-opacity:0.905882;stroke-width:1.875;stroke:rgb(9.803%,9.803%,9.803%)" d="M 55.060455 273.935028 L 55.060455 395.547089 M 72.558105 273.935028 L 72.558105 395.547089 M 90.060974 273.935028 L 90.060974 395.547089 M 107.558624 273.935028 L 107.558624 395.547089 M 125.061493 273.935028 L 125.061493 395.547089 M 142.559143 273.935028 L 142.559143 395.547089 M 160.062012 273.935028 L 160.062012 395.547089 M 177.559662 273.935028 L 177.559662 395.547089 M 195.062531 273.935028 L 195.062531 395.547089 M 212.560181 273.935028 L 212.560181 395.547089 M 230.063049 273.935028 L 230.063049 395.547089 M 247.560699 273.935028 L 247.560699 395.547089 M 265.05835 273.935028 L 265.05835 395.547089 M 282.561218 273.935028 L 282.561218 395.547089 M 300.058868 273.935028 L 300.058868 395.547089 M 317.561737 273.935028 L 317.561737 395.547089 M 335.059387 273.935028 L 335.059387 395.547089 M 352.562256 273.935028 L 352.562256 395.547089 M 370.059906 273.935028 L 370.059906 395.547089 M 387.562775 273.935028 L 387.562775 395.547089 M 405.060425 273.935028 L 405.060425 395.547089 M 422.558075 273.935028 L 422.558075 395.547089 M 440.060944 273.935028 L 440.060944 395.547089 M 457.558594 273.935028 L 457.558594 395.547089 M 55.060455 273.935028 L 459.160675 273.935028 M 55.060455 291.234375 L 459.160675 291.234375 M 55.060455 308.533722 L 459.160675 308.533722 M 55.060455 325.833069 L 459.160675 325.833069 M 55.060455 343.132416 L 459.160675 343.132416 M 55.060455 360.431763 L 459.160675 360.431763 M 55.060455 377.736328 L 459.160675 377.736328 M 55.060455 395.035675 L 459.160675 395.035675" transform="matrix(0.748538,0,0,0.748538,0,0)"/> <path style="fill:rgb(29.019%,68.235%,90.196%);fill-opacity:0.992157" d="M 55.011719 103.605469 L 55.011719 114.714844 L 66.121094 114.714844 L 66.121094 103.605469 Z M 68.460938 103.605469 L 68.460938 114.714844 L 79.574219 114.714844 L 79.574219 103.605469 Z M 107.644531 103.605469 L 107.644531 114.714844 L 118.753906 114.714844 L 118.753906 103.605469 Z M 120.507812 103.605469 L 120.507812 114.714844 L 131.621094 114.714844 L 131.621094 103.605469 Z M 133.960938 103.605469 L 133.960938 114.714844 L 145.070312 114.714844 L 145.070312 103.605469 Z M 173.140625 103.605469 L 173.140625 114.714844 L 184.25 114.714844 L 184.25 103.605469 Z M 186.003906 103.605469 L 186.003906 114.714844 L 197.117188 114.714844 L 197.117188 103.605469 Z M 199.457031 103.605469 L 199.457031 114.714844 L 210.566406 114.714844 L 210.566406 103.605469 Z M 225.773438 103.605469 L 225.773438 114.714844 L 236.882812 114.714844 L 236.882812 103.605469 Z M 264.953125 103.605469 L 264.953125 114.714844 L 276.0625 114.714844 L 276.0625 103.605469 Z M 304.132812 103.605469 L 304.132812 114.714844 L 315.246094 114.714844 L 315.246094 103.605469 Z M 317 103.605469 L 317 114.714844 L 328.109375 114.714844 L 328.109375 103.605469 Z M 42.144531 116.46875 L 42.144531 127.582031 L 53.257812 127.582031 L 53.257812 116.46875 Z M 81.328125 116.46875 L 81.328125 127.582031 L 92.4375 127.582031 L 92.4375 116.46875 Z M 107.644531 116.46875 L 107.644531 127.582031 L 118.753906 127.582031 L 118.753906 116.46875 Z M 146.824219 116.46875 L 146.824219 127.582031 L 157.9375 127.582031 L 157.9375 116.46875 Z M 186.003906 116.46875 L 186.003906 127.582031 L 197.117188 127.582031 L 197.117188 116.46875 Z M 225.773438 116.46875 L 225.773438 127.582031 L 236.882812 127.582031 L 236.882812 116.46875 Z M 264.953125 116.46875 L 264.953125 127.582031 L 276.0625 127.582031 L 276.0625 116.46875 Z M 291.269531 116.46875 L 291.269531 127.582031 L 302.378906 127.582031 L 302.378906 116.46875 Z M 330.449219 116.46875 L 330.449219 127.582031 L 341.5625 127.582031 L 341.5625 116.46875 Z M 42.144531 129.335938 L 42.144531 140.445312 L 53.257812 140.445312 L 53.257812 129.335938 Z M 81.328125 129.335938 L 81.328125 140.445312 L 92.4375 140.445312 L 92.4375 129.335938 Z M 107.644531 129.335938 L 107.644531 140.445312 L 118.753906 140.445312 L 118.753906 129.335938 Z M 146.824219 129.335938 L 146.824219 140.445312 L 157.9375 140.445312 L 157.9375 129.335938 Z M 186.003906 129.335938 L 186.003906 140.445312 L 197.117188 140.445312 L 197.117188 129.335938 Z M 225.773438 129.335938 L 225.773438 140.445312 L 236.882812 140.445312 L 236.882812 129.335938 Z M 264.953125 129.335938 L 264.953125 140.445312 L 276.0625 140.445312 L 276.0625 129.335938 Z M 291.269531 129.335938 L 291.269531 140.445312 L 302.378906 140.445312 L 302.378906 129.335938 Z M 330.449219 129.335938 L 330.449219 140.445312 L 341.5625 140.445312 L 341.5625 129.335938 Z M 42.144531 142.199219 L 42.144531 153.3125 L 53.257812 153.3125 L 53.257812 142.199219 Z M 55.011719 142.199219 L 55.011719 153.3125 L 66.121094 153.3125 L 66.121094 142.199219 Z M 68.460938 142.199219 L 68.460938 153.3125 L 79.574219 153.3125 L 79.574219 142.199219 Z M 81.328125 142.199219 L 81.328125 153.3125 L 92.4375 153.3125 L 92.4375 142.199219 Z M 107.644531 142.199219 L 107.644531 153.3125 L 118.753906 153.3125 L 118.753906 142.199219 Z M 120.507812 142.199219 L 120.507812 153.3125 L 131.621094 153.3125 L 131.621094 142.199219 Z M 133.960938 142.199219 L 133.960938 153.3125 L 145.070312 153.3125 L 145.070312 142.199219 Z M 186.003906 142.199219 L 186.003906 153.3125 L 197.117188 153.3125 L 197.117188 142.199219 Z M 225.773438 142.199219 L 225.773438 153.3125 L 236.882812 153.3125 L 236.882812 142.199219 Z M 264.953125 142.199219 L 264.953125 153.3125 L 276.0625 153.3125 L 276.0625 142.199219 Z M 291.269531 142.199219 L 291.269531 153.3125 L 302.378906 153.3125 L 302.378906 142.199219 Z M 304.132812 142.199219 L 304.132812 153.3125 L 315.246094 153.3125 L 315.246094 142.199219 Z M 317 142.199219 L 317 153.3125 L 328.109375 153.3125 L 328.109375 142.199219 Z M 330.449219 142.199219 L 330.449219 153.3125 L 341.5625 153.3125 L 341.5625 142.199219 Z M 42.144531 155.652344 L 42.144531 166.175781 L 53.257812 166.175781 L 53.257812 155.652344 Z M 81.328125 155.652344 L 81.328125 166.175781 L 92.4375 166.175781 L 92.4375 155.652344 Z M 107.644531 155.652344 L 107.644531 166.175781 L 118.753906 166.175781 L 118.753906 155.652344 Z M 146.824219 155.652344 L 146.824219 166.175781 L 157.9375 166.175781 L 157.9375 155.652344 Z M 186.003906 155.652344 L 186.003906 166.175781 L 197.117188 166.175781 L 197.117188 155.652344 Z M 238.636719 155.652344 L 238.636719 166.175781 L 249.75 166.175781 L 249.75 155.652344 Z M 251.503906 155.652344 L 251.503906 166.175781 L 262.613281 166.175781 L 262.613281 155.652344 Z M 291.269531 155.652344 L 291.269531 166.175781 L 302.378906 166.175781 L 302.378906 155.652344 Z M 330.449219 155.652344 L 330.449219 166.175781 L 341.5625 166.175781 L 341.5625 155.652344 Z M 42.296875 218.941406 L 42.296875 230.054688 L 53.410156 230.054688 L 53.410156 218.941406 Z M 55.164062 218.941406 L 55.164062 230.054688 L 66.273438 230.054688 L 66.273438 218.941406 Z M 94.34375 218.941406 L 94.34375 230.054688 L 105.457031 230.054688 L 105.457031 218.941406 Z M 134.109375 218.941406 L 134.109375 230.054688 L 145.222656 230.054688 L 145.222656 218.941406 Z M 173.292969 218.941406 L 173.292969 230.054688 L 184.402344 230.054688 L 184.402344 218.941406 Z M 186.15625 218.941406 L 186.15625 230.054688 L 197.269531 230.054688 L 197.269531 218.941406 Z M 251.65625 218.941406 L 251.65625 230.054688 L 262.765625 230.054688 L 262.765625 218.941406 Z M 265.105469 218.941406 L 265.105469 230.054688 L 276.214844 230.054688 L 276.214844 218.941406 Z M 290.835938 218.941406 L 290.835938 230.054688 L 301.949219 230.054688 L 301.949219 218.941406 Z M 304.285156 218.941406 L 304.285156 230.054688 L 315.398438 230.054688 L 315.398438 218.941406 Z M 317.152344 218.941406 L 317.152344 230.054688 L 328.261719 230.054688 L 328.261719 218.941406 Z M 330.601562 218.941406 L 330.601562 230.054688 L 341.714844 230.054688 L 341.714844 218.941406 Z M 68.613281 231.808594 L 68.613281 242.917969 L 79.726562 242.917969 L 79.726562 231.808594 Z M 94.34375 231.808594 L 94.34375 242.917969 L 105.457031 242.917969 L 105.457031 231.808594 Z M 134.109375 231.808594 L 134.109375 242.917969 L 145.222656 242.917969 L 145.222656 231.808594 Z M 159.84375 231.808594 L 159.84375 242.917969 L 170.953125 242.917969 L 170.953125 231.808594 Z M 199.609375 231.808594 L 199.609375 242.917969 L 210.71875 242.917969 L 210.71875 231.808594 Z M 225.339844 231.808594 L 225.339844 242.917969 L 236.449219 242.917969 L 236.449219 231.808594 Z M 265.105469 231.808594 L 265.105469 242.917969 L 276.214844 242.917969 L 276.214844 231.808594 Z M 330.601562 231.808594 L 330.601562 242.917969 L 341.714844 242.917969 L 341.714844 231.808594 Z M 68.613281 244.675781 L 68.613281 255.785156 L 79.726562 255.785156 L 79.726562 244.675781 Z M 107.796875 244.675781 L 107.796875 255.785156 L 118.90625 255.785156 L 118.90625 244.675781 Z M 120.660156 244.675781 L 120.660156 255.785156 L 131.773438 255.785156 L 131.773438 244.675781 Z M 173.292969 244.675781 L 173.292969 255.785156 L 184.402344 255.785156 L 184.402344 244.675781 Z M 186.15625 244.675781 L 186.15625 255.785156 L 197.269531 255.785156 L 197.269531 244.675781 Z M 265.105469 244.675781 L 265.105469 255.785156 L 276.214844 255.785156 L 276.214844 244.675781 Z M 317.152344 244.675781 L 317.152344 255.785156 L 328.261719 255.785156 L 328.261719 244.675781 Z M 42.296875 258.125 L 42.296875 268.652344 L 53.410156 268.652344 L 53.410156 258.125 Z M 55.164062 258.125 L 55.164062 268.652344 L 66.273438 268.652344 L 66.273438 258.125 Z M 68.613281 258.125 L 68.613281 268.652344 L 79.726562 268.652344 L 79.726562 258.125 Z M 120.660156 258.125 L 120.660156 268.652344 L 131.773438 268.652344 L 131.773438 258.125 Z M 159.84375 258.125 L 159.84375 268.652344 L 170.953125 268.652344 L 170.953125 258.125 Z M 199.609375 258.125 L 199.609375 268.652344 L 210.71875 268.652344 L 210.71875 258.125 Z M 225.339844 258.125 L 225.339844 268.652344 L 236.449219 268.652344 L 236.449219 258.125 Z M 265.105469 258.125 L 265.105469 268.652344 L 276.214844 268.652344 L 276.214844 258.125 Z M 304.285156 258.125 L 304.285156 268.652344 L 315.398438 268.652344 L 315.398438 258.125 Z M 68.613281 270.988281 L 68.613281 281.515625 L 79.726562 281.515625 L 79.726562 270.988281 Z M 107.796875 270.988281 L 107.796875 281.515625 L 118.90625 281.515625 L 118.90625 270.988281 Z M 173.292969 270.988281 L 173.292969 281.515625 L 184.402344 281.515625 L 184.402344 270.988281 Z M 186.15625 270.988281 L 186.15625 281.515625 L 197.269531 281.515625 L 197.269531 270.988281 Z M 265.105469 270.988281 L 265.105469 281.515625 L 276.214844 281.515625 L 276.214844 270.988281 Z M 304.285156 270.988281 L 304.285156 281.515625 L 315.398438 281.515625 L 315.398438 270.988281 Z M 304.285156 270.988281"/> <path style="fill:rgb(36.078%,71.372%,90.980%)" d="M 238.636719 160.914062 L 238.636719 155.648438 L 249.75 155.648438 L 249.75 166.175781 L 238.636719 166.175781 Z M 238.636719 160.914062"/> </g> </svg>

<svg width="512" height="512" version="1.1" viewBox="0 0 384 384" xmlns="http://www.w3.org/2000/svg"><path d="m25.162 35.443c-8.3226 0-15.139 6.7342-15.139 14.957v279.44c0 8.2226 6.8161 14.957 15.139 14.957h333.68c8.3226 0 15.139-6.7342 15.139-14.957v-279.44c0-8.2226-6.8161-14.957-15.139-14.957zm0 7.4099h333.68c4.2973 0 7.6387 3.3012 7.6387 7.5469v279.44c0 4.2457-3.3413 7.5469-7.6387 7.5469h-333.68c-4.2973 0-7.6387-3.3012-7.6387-7.5469v-279.44c0-4.2457 3.3413-7.5469 7.6387-7.5469z" color="#000000" color-rendering="auto" dominant-baseline="auto" image-rendering="auto" opacity=".2" shape-rendering="auto" solid-color="#000000" style="font-feature-settings:normal;font-variant-alternates:normal;font-variant-caps:normal;font-variant-ligatures:normal;font-variant-numeric:normal;font-variant-position:normal;isolation:auto;mix-blend-mode:normal;shape-padding:0;text-decoration-color:#000000;text-decoration-line:none;text-decoration-style:solid;text-indent:0;text-orientation:mixed;text-transform:none;white-space:normal"/><rect x="13.773" y="39.193" width="356.45" height="305.61" rx="11.39" ry="11.39" fill="#fff"/><rect x="33.258" y="62.523" width="319.59" height="262.56" rx="8.0538" ry="8.0538"/><path d="m41.883 91.234h302.48v85.184h-302.48z" fill="#171717"/><path d="m41.93 89.691v91.035h301.09v-91.035zm0.05859 115.36v91.031h301.09v-91.031z" fill="#262833" fill-opacity=".99216"/><path d="m41.156 89.695v91.031m13.098-91.031v91.031m13.098-91.031v91.031m13.102-91.031v91.031m13.098-91.031v91.031m13.102-91.031v91.031m13.098-91.031v91.031m13.102-91.031v91.031m13.098-91.031v91.031m13.102-91.031v91.031m13.098-91.031v91.031m13.102-91.031v91.031m13.098-91.031v91.031m13.098-91.031v91.031m13.102-91.031v91.031m13.098-91.031v91.031m13.102-91.031v91.031m13.098-91.031v91.031m13.102-91.031v91.031m13.098-91.031v91.031m13.102-91.031v91.031m13.098-91.031v91.031m13.102-91.031v91.031m13.098-91.031v91.031m-301.29-91.031h302.48m-302.48 12.949h302.48m-302.48 12.949h302.48m-302.48 12.949h302.48m-302.48 12.949h302.48m-302.48 12.949h302.48m-302.48 12.949h302.48m-302.48 12.949h302.48" fill="#333542" fill-rule="evenodd" stroke="#171717" stroke-width="1.4035"/><path d="m41.215 205.05v91.031m13.098-91.031v91.031m13.102-91.031v91.031m13.098-91.031v91.031m13.102-91.031v91.031m13.098-91.031v91.031m13.102-91.031v91.031m13.098-91.031v91.031m13.102-91.031v91.031m13.098-91.031v91.031m13.102-91.031v91.031m13.098-91.031v91.031m13.098-91.031v91.031m13.102-91.031v91.031m13.098-91.031v91.031m13.102-91.031v91.031m13.098-91.031v91.031m13.102-91.031v91.031m13.098-91.031v91.031m13.102-91.031v91.031m13.098-91.031v91.031m13.098-91.031v91.031m13.102-91.031v91.031m13.098-91.031v91.031m-301.29-91.031h302.48m-302.48 12.949h302.48m-302.48 12.949h302.48m-302.48 12.949h302.48m-302.48 12.949h302.48m-302.48 12.949h302.48m-302.48 12.953h302.48m-302.48 12.949h302.48" fill="#73757f" fill-opacity=".90588" fill-rule="evenodd" stroke="#171717" stroke-width="1.4035"/><path d="m55.012 103.61v11.109h11.109v-11.109zm13.449 0v11.109h11.113v-11.109zm39.184 0v11.109h11.109v-11.109zm12.863 0v11.109h11.113v-11.109zm13.453 0v11.109h11.109v-11.109zm39.18 0v11.109h11.109v-11.109zm12.863 0v11.109h11.113v-11.109zm13.453 0v11.109h11.109v-11.109zm26.316 0v11.109h11.109v-11.109zm39.18 0v11.109h11.109v-11.109zm39.18 0v11.109h11.113v-11.109zm12.867 0v11.109h11.109v-11.109zm-274.86 12.863v11.113h11.113v-11.113zm39.184 0v11.113h11.109v-11.113zm26.316 0v11.113h11.109v-11.113zm39.18 0v11.113h11.113v-11.113zm39.18 0v11.113h11.113v-11.113zm39.77 0v11.113h11.109v-11.113zm39.18 0v11.113h11.109v-11.113zm26.316 0v11.113h11.109v-11.113zm39.18 0v11.113h11.113v-11.113zm-288.3 12.867v11.109h11.113v-11.109zm39.184 0v11.109h11.109v-11.109zm26.316 0v11.109h11.109v-11.109zm39.18 0v11.109h11.113v-11.109zm39.18 0v11.109h11.113v-11.109zm39.77 0v11.109h11.109v-11.109zm39.18 0v11.109h11.109v-11.109zm26.316 0v11.109h11.109v-11.109zm39.18 0v11.109h11.113v-11.109zm-288.3 12.863v11.113h11.113v-11.113zm12.867 0v11.113h11.109v-11.113zm13.449 0v11.113h11.113v-11.113zm12.867 0v11.113h11.109v-11.113zm26.316 0v11.113h11.109v-11.113zm12.863 0v11.113h11.113v-11.113zm13.453 0v11.113h11.109v-11.113zm52.043 0v11.113h11.113v-11.113zm39.77 0v11.113h11.109v-11.113zm39.18 0v11.113h11.109v-11.113zm26.316 0v11.113h11.109v-11.113zm12.863 0v11.113h11.113v-11.113zm12.867 0v11.113h11.109v-11.113zm13.449 0v11.113h11.113v-11.113zm-288.3 13.453v10.523h11.113v-10.523zm39.184 0v10.523h11.109v-10.523zm26.316 0v10.523h11.109v-10.523zm39.18 0v10.523h11.113v-10.523zm39.18 0v10.523h11.113v-10.523zm52.633 0v10.523h11.113v-10.523zm12.867 0v10.523h11.109v-10.523zm39.766 0v10.523h11.109v-10.523zm39.18 0v10.523h11.113v-10.523zm-288.15 63.289v11.113h11.113v-11.113zm12.867 0v11.113h11.109v-11.113zm39.18 0v11.113h11.113v-11.113zm39.766 0v11.113h11.113v-11.113zm39.184 0v11.113h11.109v-11.113zm12.863 0v11.113h11.113v-11.113zm65.5 0v11.113h11.109v-11.113zm13.449 0v11.113h11.109v-11.113zm25.73 0v11.113h11.113v-11.113zm13.449 0v11.113h11.113v-11.113zm12.867 0v11.113h11.109v-11.113zm13.449 0v11.113h11.113v-11.113zm-261.99 12.867v11.109h11.113v-11.109zm25.73 0v11.109h11.113v-11.109zm39.766 0v11.109h11.113v-11.109zm25.734 0v11.109h11.109v-11.109zm39.766 0v11.109h11.109v-11.109zm25.73 0v11.109h11.109v-11.109zm39.766 0v11.109h11.109v-11.109zm65.496 0v11.109h11.113v-11.109zm-261.99 12.867v11.109h11.113v-11.109zm39.184 0v11.109h11.109v-11.109zm12.863 0v11.109h11.113v-11.109zm52.633 0v11.109h11.109v-11.109zm12.863 0v11.109h11.113v-11.109zm78.949 0v11.109h11.109v-11.109zm52.047 0v11.109h11.109v-11.109zm-274.86 13.449v10.527h11.113v-10.527zm12.867 0v10.527h11.109v-10.527zm13.449 0v10.527h11.113v-10.527zm52.047 0v10.527h11.113v-10.527zm39.184 0v10.527h11.109v-10.527zm39.766 0v10.527h11.109v-10.527zm25.73 0v10.527h11.109v-10.527zm39.766 0v10.527h11.109v-10.527zm39.18 0v10.527h11.113v-10.527zm-235.67 12.863v10.527h11.113v-10.527zm39.184 0v10.527h11.109v-10.527zm65.496 0v10.527h11.109v-10.527zm12.863 0v10.527h11.113v-10.527zm78.949 0v10.527h11.109v-10.527zm39.18 0v10.527h11.113v-10.527z" fill="#4aaee6" fill-opacity=".99216"/><path d="m238.64 160.91v-5.2656h11.113v10.527h-11.113z" fill="#5cb5e6"/><path transform="scale(.75)" d="m18.363 434.56v10c0 8.4133 6.7742 15.186 15.188 15.186h444.9c8.4133 0 15.188-6.7723 15.188-15.186v-10c0 8.4133-6.7742 15.186-15.188 15.186h-444.9c-8.4133 0-15.188-6.7723-15.188-15.186z" fill="#241a1a" opacity=".3"/></svg>
